public/svg/black/zel.svg

<svg xmlns="http://www.w3.org/2000/svg" width="32" height="32" viewBox="0 0 32 32"><path d="M16,32 C7.163444,32 0,24.836556 0,16 C0,7.163444 7.163444,0 16,0 C24.836556,0 32,7.163444 32,16 C32,24.836556 24.836556,32 16,32 Z M5,15.6153846 L5,20.4615385 L9.49462366,23 L13.9892473,20.4615385 L13.9892473,15.6153846 L9.49462366,13.0769231 L5,15.6153846 Z M18.0107527,15.6153846 L18.0107527,20.4615385 L22.5053763,23 L27,20.4615385 L27,15.6153846 L22.5053763,13.0769231 L18.0107527,15.6153846 Z M17.5376344,19.8255688 L17.5376344,15.2307692 L21.5591398,12.9595142 L21.5591398,11.2307692 L15.9605735,8 L10.3620072,11.2307692 L10.3620072,12.9149798 L14.4623656,15.2307692 L14.4623656,19.8689057 L15.9605735,20.6923077 L17.5376344,19.8255688 Z"/></svg>

<svg xmlns="http://www.w3.org/2000/svg" width="32" height="32" viewBox="0 0 32 32"><path d="M16 32C7.163 32 0 24.837 0 16S7.163 0 16 0s16 7.163 16 16-7.163 16-16 16zM5 15.615v4.847L9.495 23l4.494-2.538v-4.847l-4.494-2.538L5 15.615zm13.01 0v4.847L22.506 23 27 20.462v-4.847l-4.495-2.538-4.494 2.538zm-.472 4.21v-4.594l4.021-2.271v-1.73L15.961 8l-5.599 3.23v1.685l4.1 2.316v4.638l1.499.823 1.577-.866z"/></svg>
